lib/logo_tmp/nrk-logo-nrk-folkemusikk-title-below-on-light.svg

<svg width="96" height="41" viewBox="0 0 96 41" fill="none" xmlns="http://www.w3.org/2000/svg">
<path d="M0 18.0007V6.00179H3.93719V18.0007H0ZM9.29381 7.91148L11.5581 18.0007H7.24917L4.54549 6.00179H6.96218C7.51635 5.9946 8.05406 6.18995 8.4745 6.55109C8.89562 6.89708 9.18495 7.3774 9.29381 7.91148ZM12.1495 18.0007V6.00179H16.0867V18.0007H12.1495ZM19.0605 10.5648C18.6362 10.5689 18.2188 10.4579 17.8525 10.2437C17.4912 10.0348 17.1911 9.73466 16.9823 9.3733C16.7678 9.00703 16.6568 8.58946 16.661 8.16502C16.6561 7.74316 16.7672 7.32808 16.9823 6.96513C17.1933 6.60769 17.4931 6.3108 17.8525 6.10322C18.2189 5.8892 18.6362 5.77822 19.0605 5.78209C19.4822 5.77754 19.8971 5.88863 20.2602 6.10322C20.616 6.31261 20.9127 6.60926 21.122 6.96513C21.3368 7.32818 21.4479 7.7432 21.4433 8.16502C21.4473 8.58943 21.3363 9.00693 21.122 9.3733C20.9149 9.73308 20.6179 10.033 20.2602 10.2437C19.8971 10.4587 19.4819 10.5698 19.0599 10.5648H19.0605ZM22.0516 18.0007V6.00179H25.9892V18.0007H22.0516ZM30.9737 12.5589C30.9848 12.5706 31.0693 12.7086 31.2272 12.973C31.3851 13.2374 31.5906 13.5754 31.8439 13.987C32.0974 14.3984 32.3649 14.835 32.6463 15.2967C32.9278 15.7584 33.1926 16.1951 33.4408 16.6065C33.6881 17.0179 33.9697 17.4826 34.2857 18.0007H29.9598C29.6893 17.5613 29.4441 17.1642 29.2245 16.8093C29.0048 16.4544 28.7713 16.0713 28.5238 15.6601C28.2758 15.2492 28.0306 14.8492 27.7882 14.4602C27.5458 14.0711 27.3375 13.7303 27.1633 13.4378C26.9883 13.145 26.8671 12.9478 26.7997 12.8462C26.6325 12.5941 26.5336 12.303 26.5127 12.0012C26.5294 11.7116 26.6226 11.4317 26.7828 11.1898C26.8504 11.0771 26.9743 10.8771 27.1545 10.5898C27.3348 10.3025 27.546 9.96176 27.7882 9.56743C28.0304 9.1731 28.2756 8.77031 28.5238 8.35908C28.772 7.94785 29.0056 7.56194 29.2245 7.20141C29.4445 6.84125 29.6897 6.44129 29.9598 6.00152H34.2857L30.9396 11.4602C30.8361 11.6223 30.7777 11.809 30.7706 12.0012C30.7818 12.203 30.8522 12.397 30.9731 12.5589H30.9737Z" fill="#0A2343"/>
<path d="M0 34.9993H1.77453V30.0476H6.30372L6.48967 28.5775H1.77453V24.4874H7.90929V23.0002H0V34.9993Z" fill="#7B0A02"/>
<path d="M14.9482 26.7358C14.2441 26.3616 13.4553 26.1753 12.6582 26.1949C11.8537 26.1766 11.0584 26.3689 10.3511 26.7526C9.69833 27.1181 9.16455 27.6638 8.81346 28.3244C8.43184 29.0655 8.24281 29.8908 8.26388 30.7242C8.24241 31.551 8.41918 32.371 8.77935 33.1156C9.10306 33.7655 9.61949 34.2996 10.2581 34.645C10.9456 35.0052 11.713 35.1854 12.4889 35.1689C13.3012 35.185 14.1042 34.9932 14.8214 34.6115C15.4908 34.246 16.0398 33.694 16.4016 33.0226C16.7942 32.2726 16.9891 31.435 16.9678 30.5887C16.9871 29.7828 16.807 28.9845 16.4436 28.265C16.1068 27.6189 15.5866 27.0869 14.9482 26.7358ZM14.8465 32.3973C14.657 32.8366 14.3351 33.2059 13.9257 33.4536C13.5147 33.6892 13.0474 33.809 12.5737 33.8003C12.1091 33.8119 11.6512 33.6887 11.2552 33.4454C10.8637 33.1851 10.5579 32.8148 10.3764 32.381C10.1466 31.8243 10.0373 31.2253 10.0556 30.6234C10.0357 30.0377 10.1452 29.4547 10.3764 28.9162C10.566 28.4929 10.882 28.1387 11.2809 27.9021C11.7072 27.6675 12.1884 27.5508 12.6749 27.5642C13.0548 27.5546 13.4323 27.6267 13.7821 27.7754C14.0883 27.9136 14.3555 28.1256 14.5595 28.3925C14.7773 28.6823 14.9352 29.0125 15.0239 29.364C15.1297 29.7753 15.1808 30.1988 15.176 30.6234C15.1959 31.2316 15.0834 31.8368 14.8465 32.3973Z" fill="#7B0A02"/>
<path d="M21.7248 33.7569C21.6659 33.7635 21.6067 33.7665 21.5474 33.7659C21.4201 33.7696 21.2935 33.7465 21.1758 33.6981C21.0736 33.6522 20.9859 33.5791 20.9224 33.4868C20.8489 33.3773 20.7999 33.2533 20.7787 33.1232C20.7481 32.9504 20.7339 32.775 20.7364 32.5995V22.24L19.0124 22.4935V33.3603C19.0052 33.6451 19.0511 33.9289 19.1478 34.1969C19.2287 34.4148 19.3622 34.6093 19.5365 34.7631C19.7098 34.9119 19.9152 35.0189 20.1365 35.0757C20.382 35.1395 20.6348 35.1708 20.8885 35.1686C21.0237 35.1686 21.153 35.163 21.2773 35.152C21.4015 35.141 21.5223 35.1239 21.6406 35.101C21.7589 35.0782 21.8572 35.056 21.936 35.0337L22.1051 33.6983L21.902 33.7321C21.835 33.7434 21.7758 33.7516 21.7248 33.7569Z" fill="#7B0A02"/>
<path d="M31.1807 26.3802H29.0682L26.1763 29.5575H25.553V22.24L23.8295 22.4935V34.9996H25.553V30.8591H25.5812L29.0341 34.9996H31.265L27.1656 30.3803L31.1807 26.3802Z" fill="#7B0A02"/>
<path d="M38.7349 27.4703C38.4105 27.0498 37.9824 26.7208 37.4927 26.5155C36.9485 26.2933 36.365 26.1841 35.7773 26.1943C35.1853 26.1843 34.5979 26.2995 34.0535 26.5323C33.5583 26.7491 33.117 27.0723 32.7607 27.4788C32.3935 27.9058 32.1173 28.4032 31.9492 28.9406C31.7566 29.5557 31.6626 30.1974 31.6706 30.8419C31.6467 31.6562 31.8175 32.4645 32.1689 33.1995C32.4901 33.8364 33.0089 34.3522 33.6476 34.6698C34.3972 35.0228 35.2196 35.1937 36.0477 35.1683C36.4461 35.1716 36.8442 35.1462 37.2389 35.0923C37.569 35.0448 37.8942 34.9684 38.2109 34.8641C38.5249 34.7587 38.83 34.6287 39.1235 34.4754L39.2418 33.1741C39.0276 33.253 38.8106 33.3319 38.5909 33.4107C38.3712 33.4896 38.1431 33.56 37.9067 33.622C37.668 33.6845 37.4252 33.7296 37.18 33.7569C36.9332 33.7853 36.6849 33.7995 36.4364 33.7994C35.9926 33.8066 35.5497 33.7583 35.1179 33.6557C34.7697 33.5723 34.4475 33.4039 34.1802 33.1656C33.9103 32.9084 33.7122 32.585 33.6057 32.2277C33.4952 31.8657 33.4332 31.4908 33.4214 31.1125H39.5288C39.6121 30.4134 39.5808 29.7054 39.4359 29.0164C39.3171 28.4563 39.0778 27.9288 38.7349 27.4703ZM34.476 27.8762C34.8724 27.6351 35.3304 27.5147 35.7942 27.5294C36.2584 27.5062 36.7169 27.6402 37.0955 27.9097C37.432 28.1783 37.6721 28.549 37.7797 28.966C37.8643 29.2743 37.9058 29.5927 37.9031 29.9124H33.4586C33.4899 29.5754 33.5619 29.2434 33.6729 28.9237C33.8174 28.4953 34.0998 28.1269 34.476 27.8762Z" fill="#7B0A02"/>
<path d="M53.3193 26.5493C52.8586 26.299 52.3393 26.1765 51.8153 26.1944C51.3604 26.193 50.9088 26.2702 50.4802 26.4225C50.0449 26.5784 49.6349 26.7977 49.2636 27.0732C49.0531 27.2292 48.8528 27.3985 48.664 27.5801C48.4907 27.157 48.1851 26.8014 47.793 26.5662C47.3266 26.3146 46.8016 26.1921 46.272 26.2113C45.8201 26.2114 45.3714 26.2886 44.9453 26.4394C44.508 26.5933 44.0953 26.8096 43.7198 27.0816C43.5984 27.1692 43.481 27.2641 43.3649 27.3633V26.2121L41.6411 26.4656V35.0002H43.3649V28.5722C43.568 28.4392 43.7798 28.3198 43.9987 28.2148C44.2668 28.0882 44.5471 27.989 44.8352 27.919C45.1008 27.8535 45.3731 27.8195 45.6467 27.8176C45.8977 27.81 46.1477 27.8533 46.3816 27.9447C46.5753 28.0266 46.7465 28.154 46.8804 28.3162C47.0271 28.5046 47.1283 28.7244 47.1762 28.9584C47.242 29.2609 47.2731 29.5699 47.2691 29.8794V35.0002H48.9929V29.5243C48.9941 29.201 48.9723 28.878 48.9276 28.5579C49.123 28.4295 49.3253 28.312 49.5337 28.2061C49.7972 28.0735 50.0749 27.9714 50.3615 27.9018C50.6327 27.8355 50.9108 27.8015 51.19 27.8004C51.4382 27.7943 51.6851 27.8374 51.9166 27.9272C52.1138 28.0075 52.2879 28.1353 52.4237 28.2992C52.5706 28.4874 52.6718 28.7072 52.7191 28.9412C52.7851 29.2436 52.8164 29.5525 52.8124 29.862V34.9999H54.5362V29.5073C54.5577 28.8681 54.4544 28.2308 54.2319 27.6312C54.0567 27.179 53.7355 26.7982 53.3193 26.5493Z" fill="#7B0A02"/>
<path d="M62.7834 32.8958C62.6558 32.9733 62.5299 33.0454 62.4029 33.1065C62.2021 33.2048 61.9963 33.2923 61.7863 33.3687C61.5854 33.4413 61.379 33.4978 61.1692 33.5378C60.9547 33.5779 60.737 33.5977 60.5188 33.5969C60.1613 33.6106 59.8063 33.5321 59.4879 33.369C59.2144 33.2135 59.0026 32.9688 58.8879 32.6758C58.7485 32.3122 58.6824 31.9246 58.6933 31.5353V26.2118L56.9695 26.4653V31.8393C56.9487 32.4806 57.0609 33.1193 57.2991 33.7152C57.495 34.1852 57.8473 34.5733 58.2962 34.8137C58.7968 35.0633 59.3513 35.1853 59.9104 35.1689C60.2636 35.1713 60.6156 35.1287 60.9579 35.0422C61.2849 34.9576 61.6001 34.8327 61.8962 34.6704C62.2008 34.5029 62.4892 34.3076 62.7578 34.087C62.8073 34.0467 62.8564 33.9994 62.9057 33.9569L63.155 34.9991H64.4901L64.5069 26.211L62.7834 26.4645V32.8958Z" fill="#7B0A02"/>
<path d="M72.4836 31.1126C72.3107 30.9289 72.1114 30.7722 71.8921 30.6476C71.6652 30.5177 71.4276 30.4074 71.1819 30.3181C71.0019 30.2617 70.8245 30.2025 70.6499 30.1406C70.4753 30.0786 70.3005 30.0222 70.1257 29.9715C69.951 29.9208 69.7821 29.8674 69.6187 29.811C69.4656 29.7589 69.3161 29.6968 69.1711 29.6251C69.0321 29.5513 68.8993 29.4666 68.7737 29.3716C68.658 29.2843 68.5605 29.1753 68.4867 29.0505C68.4121 28.9224 68.3739 28.7763 68.3765 28.628C68.372 28.4651 68.4131 28.3041 68.4952 28.1632C68.5834 28.0249 68.7056 27.9115 68.8501 27.8337C69.0269 27.7367 69.218 27.6682 69.4162 27.6306C69.664 27.5833 69.916 27.5608 70.1683 27.5633C70.2919 27.5633 70.4274 27.5692 70.5738 27.5802C70.7203 27.5912 70.8806 27.6115 71.0555 27.6397C71.2304 27.6678 71.4045 27.7044 71.5791 27.7489C71.7538 27.7934 71.9312 27.845 72.1117 27.9013C72.2789 27.9527 72.4425 28.0149 72.6016 28.0875L72.7202 26.7183C72.5059 26.6284 72.2947 26.5494 72.0864 26.4814C71.8783 26.4141 71.6667 26.3577 71.4527 26.3124C71.2436 26.2682 71.0319 26.2372 70.8189 26.2195C70.6103 26.2026 70.4047 26.1941 70.2021 26.1941C69.7352 26.1893 69.2696 26.2433 68.8162 26.3547C68.4285 26.4491 68.0599 26.6091 67.7262 26.8279C67.4238 27.028 67.1767 27.3012 67.0079 27.6222C66.8313 27.9759 66.7442 28.3677 66.7544 28.763C66.7491 29.0476 66.795 29.331 66.8896 29.5995C66.9697 29.8249 67.0899 30.0339 67.2446 30.2163C67.3947 30.3888 67.5682 30.5396 67.76 30.6642C67.9595 30.7953 68.1718 30.9057 68.3937 30.9938C68.5173 31.039 68.6469 31.084 68.7825 31.1287C68.918 31.1734 69.0504 31.2158 69.1796 31.256C69.3088 31.2954 69.4356 31.3347 69.5599 31.374C69.6835 31.4137 69.8049 31.4529 69.9232 31.4923C70.0415 31.5317 70.157 31.5683 70.2697 31.6021C70.4209 31.6557 70.5677 31.7207 70.709 31.7965C70.8331 31.8621 70.9493 31.9415 71.0555 32.0331C71.149 32.1148 71.2238 32.2157 71.2749 32.3289C71.3268 32.4458 71.3528 32.5725 71.3512 32.7003C71.3572 32.8254 71.3353 32.9503 71.287 33.0658C71.2388 33.1814 71.1655 33.2847 71.0724 33.3685C70.8631 33.5431 70.6132 33.6622 70.3457 33.7147C70.0322 33.7838 69.7119 33.8179 69.3908 33.8161C69.1902 33.8149 68.9898 33.8007 68.7909 33.7738C68.5712 33.7456 68.3402 33.7062 68.098 33.6555C67.8557 33.6048 67.6078 33.5429 67.3541 33.4696C67.101 33.3964 66.8447 33.3148 66.5854 33.2248L66.653 34.6614C66.9458 34.7628 67.2134 34.8444 67.4558 34.9064C67.6982 34.9683 67.9292 35.0219 68.1487 35.067C68.3604 35.1108 68.5751 35.1391 68.7909 35.1515C68.9992 35.1625 69.2104 35.1681 69.4247 35.1681C69.8961 35.1705 70.3663 35.1222 70.8274 35.0241C71.2333 34.9418 71.6219 34.7905 71.9765 34.5766C72.2961 34.3814 72.5608 34.108 72.7455 33.7823C72.9389 33.4248 73.035 33.0228 73.0241 32.6164C73.0312 32.3199 72.9825 32.0247 72.8807 31.7461C72.7899 31.5115 72.6551 31.2965 72.4836 31.1126Z" fill="#7B0A02"/>
<path d="M76.5469 22.6707C76.3716 22.5635 76.1696 22.5078 75.9641 22.5101C75.756 22.5085 75.5515 22.5641 75.3727 22.6707C75.1966 22.774 75.0487 22.9191 74.942 23.0932C74.8347 23.2686 74.779 23.4707 74.7814 23.6763C74.7796 23.8844 74.8352 24.089 74.942 24.2677C75.0452 24.4446 75.1939 24.5905 75.3727 24.6902C75.5532 24.7916 75.7571 24.844 75.9641 24.8423C76.1685 24.8447 76.3698 24.7922 76.5469 24.6902C76.7209 24.5897 76.8642 24.4436 76.9613 24.2677C77.0626 24.0872 77.1151 23.8833 77.1134 23.6763C77.1157 23.4718 77.0631 23.2705 76.9613 23.0932C76.8606 22.9199 76.7182 22.7746 76.5469 22.6707Z" fill="#7B0A02"/>
<path d="M75.0693 34.9993H76.7931V26.2113L75.0693 26.4648V34.9993Z" fill="#7B0A02"/>
<path d="M86.7811 26.3802H84.6686L81.7766 29.5575H81.1534V22.24L79.4295 22.4935V34.9996H81.1534V30.8591H81.1815L84.6345 34.9996H86.8653L82.7659 30.3803L86.7811 26.3802Z" fill="#7B0A02"/>
<path d="M93.5074 34.9993H95.7382L91.6388 30.38L95.6536 26.3802H93.5411L90.6492 29.5575H90.0259V22.24L88.3021 22.4935V34.9996H90.0259V30.8591H90.0541L93.5074 34.9993Z" fill="#7B0A02"/>
</svg>

<svg xmlns="http://www.w3.org/2000/svg" viewBox="0 0 96 41"><path fill="#0A2343" d="M0 18V6.003h3.937V18H0ZM9.294 7.912l2.264 10.09H7.25L4.545 6h2.417a2.276 2.276 0 0 1 1.513.55c.42.346.71.826.819 1.36Zm2.855 10.09V6h3.938v12h-3.938Zm6.912-7.436a2.382 2.382 0 0 1-2.4-2.4 2.301 2.301 0 0 1 .321-1.2 2.41 2.41 0 0 1 3.278-.862c.356.21.653.506.862.862.215.363.326.778.321 1.2a2.35 2.35 0 0 1-.321 1.208 2.4 2.4 0 0 1-.862.87 2.302 2.302 0 0 1-1.2.322ZM22.05 18V6h3.938v12h-3.937Zm8.923-5.442c.01.012.095.15.253.414s.364.602.617 1.014a315.936 315.936 0 0 1 1.597 2.62c.247.41.529.876.845 1.394H29.96c-.27-.44-.516-.837-.736-1.192-.22-.355-.453-.738-.7-1.149-.248-.41-.493-.81-.736-1.2-.242-.389-.45-.73-.625-1.022-.175-.293-.296-.49-.363-.592a1.747 1.747 0 0 1-.287-.845c.016-.29.11-.57.27-.811.067-.113.191-.313.371-.6s.392-.628.634-1.023c.242-.394.488-.797.736-1.208l.7-1.158.736-1.2h4.326l-3.346 5.46a1.08 1.08 0 0 0-.17.54c.012.202.082.396.203.558Z"/><path fill="#7B0A02" d="M0 35h1.775v-4.952h4.529l.186-1.47H1.775v-4.09h6.134V23H0v12ZM14.948 26.736a4.637 4.637 0 0 0-2.29-.541 4.618 4.618 0 0 0-2.307.558 3.898 3.898 0 0 0-1.538 1.571 4.968 4.968 0 0 0-.55 2.4 5.183 5.183 0 0 0 .516 2.392c.324.65.84 1.184 1.48 1.529.687.36 1.454.54 2.23.524a4.764 4.764 0 0 0 2.332-.557 3.94 3.94 0 0 0 1.58-1.59c.393-.75.588-1.587.567-2.433a4.895 4.895 0 0 0-.524-2.324 3.694 3.694 0 0 0-1.496-1.53Zm-.101 5.661c-.19.44-.512.809-.921 1.057a2.622 2.622 0 0 1-1.352.346 2.404 2.404 0 0 1-1.319-.355 2.382 2.382 0 0 1-.879-1.064 4.267 4.267 0 0 1-.32-1.758c-.02-.585.09-1.168.32-1.707.19-.423.506-.777.905-1.014a2.735 2.735 0 0 1 1.394-.338c.38-.01.757.063 1.107.211.306.139.573.35.777.617.218.29.376.62.465.972.106.411.157.835.152 1.26a4.203 4.203 0 0 1-.33 1.773ZM21.725 33.757a1.46 1.46 0 0 1-.178.009.908.908 0 0 1-.371-.068.612.612 0 0 1-.254-.211.917.917 0 0 1-.143-.364 2.777 2.777 0 0 1-.043-.523V22.24l-1.724.254V33.36c-.007.285.04.569.136.837a1.41 1.41 0 0 0 .989.879c.245.063.498.095.752.093.135 0 .264-.006.388-.017.124-.011.245-.028.364-.051a3.66 3.66 0 0 0 .295-.067l.17-1.336-.204.034c-.067.011-.126.02-.177.025ZM31.18 26.38h-2.112l-2.892 3.178h-.623V22.24l-1.724.254V35h1.724v-4.14h.028L29.034 35h2.231l-4.1-4.62 4.016-4ZM38.735 27.47a3.066 3.066 0 0 0-1.242-.954 4.338 4.338 0 0 0-1.716-.322 4.204 4.204 0 0 0-1.724.338c-.495.217-.936.54-1.292.947a4.136 4.136 0 0 0-.812 1.462 6.109 6.109 0 0 0-.278 1.9 5.118 5.118 0 0 0 .498 2.358c.321.637.84 1.153 1.479 1.47.75.354 1.572.525 2.4.5.398.003.796-.023 1.19-.077.331-.047.656-.124.973-.228.314-.105.619-.235.913-.389l.118-1.3-.651.236c-.22.079-.448.149-.684.211a5.094 5.094 0 0 1-.727.135 6.482 6.482 0 0 1-.744.042 5.33 5.33 0 0 1-1.318-.143 2.168 2.168 0 0 1-.938-.49 2.14 2.14 0 0 1-.574-.938 4.276 4.276 0 0 1-.185-1.116h6.108c.083-.699.052-1.407-.093-2.096a3.95 3.95 0 0 0-.701-1.546Zm-4.259.406a2.39 2.39 0 0 1 1.318-.347c.464-.023.923.111 1.302.38.336.27.576.64.684 1.057.084.308.126.627.123.946H33.46c.03-.337.103-.669.214-.988.144-.429.427-.797.803-1.048ZM53.32 26.55a2.94 2.94 0 0 0-1.505-.356 3.95 3.95 0 0 0-1.335.229 4.703 4.703 0 0 0-1.216.65 6.13 6.13 0 0 0-.6.507 2.119 2.119 0 0 0-.871-1.014 2.976 2.976 0 0 0-1.521-.355c-.452 0-.9.078-1.327.228a4.812 4.812 0 0 0-1.58.924v-1.15l-1.724.253V35h1.724v-6.428c.203-.133.415-.252.634-.357.268-.127.548-.226.836-.296.266-.066.538-.1.812-.101.25-.008.5.035.735.127.193.082.364.209.498.371.147.189.248.408.296.642.066.303.097.612.093.921V35h1.724v-5.476a6.805 6.805 0 0 0-.065-.966c.195-.128.397-.246.606-.352.263-.133.54-.235.828-.304.27-.067.549-.1.828-.102.248-.006.495.037.727.127.197.08.37.208.507.372.147.188.248.408.295.642.066.303.097.611.093.921V35h1.724v-5.493a4.918 4.918 0 0 0-.304-1.876 2.177 2.177 0 0 0-.913-1.082ZM62.783 32.896c-.127.077-.253.15-.38.21-.2.099-.407.186-.617.263-.2.072-.407.129-.617.169a3.47 3.47 0 0 1-.65.059 2.086 2.086 0 0 1-1.031-.228 1.373 1.373 0 0 1-.6-.693 2.955 2.955 0 0 1-.195-1.14v-5.324l-1.724.253v5.374c-.02.642.092 1.28.33 1.876.196.47.548.858.997 1.099.5.25 1.055.371 1.614.355a4.16 4.16 0 0 0 1.048-.127c.327-.084.642-.21.938-.372.305-.167.593-.362.862-.583.05-.04.098-.088.148-.13l.249 1.042h1.335l.017-8.788-1.724.254v6.43ZM72.484 31.113a2.525 2.525 0 0 0-.592-.465 4.575 4.575 0 0 0-.71-.33c-.18-.056-.358-.116-.532-.177a9.352 9.352 0 0 0-.524-.17c-.175-.05-.344-.104-.507-.16a3.696 3.696 0 0 1-.448-.186 2.958 2.958 0 0 1-.397-.253 1.11 1.11 0 0 1-.287-.322.811.811 0 0 1-.11-.422.875.875 0 0 1 .118-.465.961.961 0 0 1 .355-.33c.177-.096.368-.165.566-.202.248-.048.5-.07.752-.068a5.46 5.46 0 0 1 .887.077c.175.028.35.064.524.109.175.044.352.096.533.152.167.052.33.114.49.186l.118-1.369a8.29 8.29 0 0 0-.634-.237 6.3 6.3 0 0 0-.633-.169 5.111 5.111 0 0 0-.634-.093 7.637 7.637 0 0 0-.617-.025 5.568 5.568 0 0 0-1.386.16 3.496 3.496 0 0 0-1.09.474c-.302.2-.55.473-.718.794a2.415 2.415 0 0 0-.254 1.141c-.005.285.041.568.136.836.08.226.2.435.355.617.15.173.323.324.515.448.2.131.412.242.634.33.123.045.253.09.388.135.136.044.268.087.398.127a38.956 38.956 0 0 1 .743.236c.118.04.234.076.347.11.15.054.298.119.439.195.124.065.24.145.346.236a.866.866 0 0 1 .296.667.843.843 0 0 1-.279.668c-.209.175-.459.294-.726.347-.314.069-.634.103-.955.101a4.686 4.686 0 0 1-.6-.042 8.951 8.951 0 0 1-.693-.118c-.242-.051-.49-.113-.744-.186-.253-.074-.51-.155-.769-.245l.068 1.436c.293.102.56.183.803.245.242.062.473.116.693.161.211.044.426.072.642.084.208.011.42.017.634.017a6.58 6.58 0 0 0 1.402-.144 3.615 3.615 0 0 0 1.15-.447c.32-.196.584-.469.769-.795.193-.357.289-.76.278-1.166a2.37 2.37 0 0 0-.143-.87 1.973 1.973 0 0 0-.397-.633ZM76.547 22.67a1.094 1.094 0 0 0-.583-.16 1.138 1.138 0 0 0-.591.16 1.242 1.242 0 0 0-.431.423 1.093 1.093 0 0 0-.16.583c-.002.208.053.413.16.592.103.177.252.322.43.422.181.102.385.154.592.152.204.003.406-.05.583-.152.174-.1.317-.246.414-.422.102-.18.154-.385.152-.592a1.145 1.145 0 0 0-.152-.583 1.198 1.198 0 0 0-.414-.422ZM75.07 35h1.723V26.21l-1.724.254v8.534ZM86.781 26.38H84.67l-2.892 3.178h-.624V22.24l-1.724.254V35h1.724v-4.14h.028L84.635 35h2.23l-4.1-4.62 4.016-4ZM93.507 35h2.231l-4.1-4.62 4.016-4H93.54l-2.892 3.178h-.623V22.24l-1.724.254V35h1.724v-4.14h.028L93.507 35Z"/></svg>
